flaticon/essential/menu-2.svg

<svg xmlns="http://www.w3.org/2000/svg" width="32" height="32" viewBox="0 0 24 24">
    <path d="M0 1.441406L24 1.441406 24 2.398438 0 2.398438zM0 8.160156L24 8.160156 24 9.121094 0 9.121094zM0 14.878906L24 14.878906 24 15.839844 0 15.839844zM0 21.601562L24 21.601562 24 22.558594 0 22.558594zM0 21.601562"/>
</svg>

<svg xmlns="http://www.w3.org/2000/svg" width="32" height="32" viewBox="0 0 24 24">
    <path d="M0 1.441h24v.957H0zm0 0M0 8.16h24v.961H0zm0 0M0 14.879h24v.96H0zm0 0M0 21.602h24v.957H0zm0 0"/>
</svg>
